build/system/DarkModeSolid.svg

<svg xmlns="http://www.w3.org/2000/svg" fill="none" viewBox="0 0 24 24" focusable="false"><path d="M0 0H24V24H0z"/><path fill="#74767B" d="M20.0001 11.3501C20.3591 11.3501 20.6501 11.6411 20.6501 12.0001C20.6501 16.7774 16.7774 20.6501 12.0001 20.6501C7.22283 20.6501 3.3501 16.7774 3.3501 12.0001C3.3501 7.22283 7.22283 3.3501 12.0001 3.3501C12.3591 3.3501 12.6501 3.64111 12.6501 4.0001C12.6501 4.2943 12.4289 4.49031 12.2519 4.69064C11.4729 5.57231 11.0001 6.73091 11.0001 7.99993C11.0001 10.7614 13.2387 12.9999 16.0001 12.9999C17.2691 12.9999 18.4277 12.5272 19.3094 11.7482C19.5096 11.5712 19.7061 11.3501 20.0001 11.3501Z"/><path fill="#74767B" fill-rule="evenodd" d="M20.6501 12.0001C20.6501 11.6411 20.3591 11.3501 20.0001 11.3501C19.7061 11.3501 19.5096 11.5712 19.3094 11.7482C18.4277 12.5272 17.2691 12.9999 16.0001 12.9999C13.2387 12.9999 11.0001 10.7614 11.0001 7.99993C11.0001 6.73091 11.4729 5.57231 12.2519 4.69064C12.4289 4.49031 12.6501 4.2943 12.6501 4.0001C12.6501 3.64111 12.3591 3.3501 12.0001 3.3501C7.22283 3.3501 3.3501 7.22283 3.3501 12.0001C3.3501 16.7774 7.22283 20.6501 12.0001 20.6501C16.7774 20.6501 20.6501 16.7774 20.6501 12.0001ZM19.2144 13.4201L19.2139 13.4204C18.9137 13.5986 18.5984 13.7515 18.2681 13.879C17.9431 14.0044 17.6123 14.1018 17.2757 14.1712C16.8594 14.257 16.4342 14.2999 16.0001 14.2999C15.5368 14.2999 15.0842 14.2513 14.6423 14.154C14.2697 14.072 13.9048 13.9554 13.5475 13.8043C13.189 13.6527 12.8501 13.4714 12.5307 13.2606C12.1785 13.028 11.85 12.7594 11.5453 12.4547C11.2407 12.15 10.9721 11.8216 10.7395 11.4693C10.5286 11.15 10.3474 10.8111 10.1957 10.4526C10.0446 10.0952 9.92802 9.73031 9.84602 9.35777C9.74875 8.91586 9.70011 8.46325 9.70011 7.99993C9.70011 7.56589 9.74302 7.1407 9.82883 6.72435C9.8982 6.38775 9.99562 6.05694 10.1211 5.73191C10.2486 5.40158 10.4014 5.08631 10.5797 4.7861L10.5798 4.78583C10.5052 4.80041 10.4309 4.81617 10.3568 4.8331C9.94265 4.92774 9.5369 5.0591 9.13955 5.22716C8.73186 5.3996 8.34573 5.60502 7.98118 5.84341C7.55956 6.11912 7.16679 6.43894 6.80286 6.80286C6.43893 7.16679 6.11911 7.55957 5.84341 7.98119C5.60501 8.34574 5.3996 8.73186 5.22716 9.13955C5.05909 9.53691 4.92774 9.94266 4.83309 10.3568C4.7111 10.8906 4.6501 11.4384 4.6501 12.0001C4.6501 12.5618 4.7111 13.1096 4.8331 13.6434C4.92774 14.0576 5.0591 14.4633 5.22716 14.8606C5.39959 15.2683 5.605 15.6544 5.84338 16.019C6.11909 16.4406 6.43892 16.8334 6.80286 17.1973C7.16679 17.5613 7.55956 17.8811 7.98117 18.1568C8.34573 18.3952 8.73186 18.6006 9.13955 18.773C9.53689 18.9411 9.94263 19.0724 10.3567 19.1671C10.8906 19.2891 11.4384 19.3501 12.0001 19.3501C12.5618 19.3501 13.1096 19.2891 13.6434 19.1671C14.0576 19.0725 14.4633 18.9411 14.8606 18.773C15.2683 18.6006 15.6544 18.3952 16.0189 18.1568C16.4406 17.8811 16.8334 17.5613 17.1973 17.1973C17.5613 16.8334 17.8811 16.4406 18.1568 16.019C18.3952 15.6545 18.6006 15.2683 18.773 14.8606C18.9411 14.4633 19.0724 14.0576 19.1671 13.6435C19.184 13.5693 19.1998 13.4948 19.2144 13.4201Z"/></svg>

<svg xmlns="http://www.w3.org/2000/svg" fill="none" viewBox="0 0 24 24" focusable="false"><g fill="#74767B"><path d="M20 11.35c.35 0 .64.29.64.65 0 4.77-3.87 8.65-8.64 8.65-4.78 0-8.65-3.88-8.65-8.65 0-4.78 3.87-8.65 8.65-8.65.35 0 .64.29.64.65 0 .29-.22.49-.39.69-.78.88-1.25 2.04-1.25 3.3 0 2.77 2.23 5 5 5 1.26 0 2.42-.47 3.3-1.25.2-.17.4-.39.7-.39"/><path fill-rule="evenodd" d="M20 11.35c.35 0 .64.29.64.65 0 4.77-3.87 8.65-8.64 8.65-4.78 0-8.65-3.88-8.65-8.65 0-4.78 3.87-8.65 8.65-8.65.35 0 .64.29.64.65 0 .29-.22.49-.39.69-.78.88-1.25 2.04-1.25 3.3 0 2.77 2.23 5 5 5 1.26 0 2.42-.47 3.3-1.25.2-.17.4-.39.7-.39m-.79 2.07q-.45.26-.95.45-.48.19-.99.3-.62.12-1.27.12-.7 0-1.36-.14-.56-.12-1.1-.35t-1.01-.54q-.53-.35-.99-.81t-.81-.99q-.31-.47-.54-1.01t-.35-1.1q-.14-.66-.14-1.36 0-.65.12-1.27.11-.51.3-.99.19-.5.45-.95-.11.02-.22.05-.62.14-1.22.39-.61.26-1.15.62-.64.41-1.18.96-.55.54-.96 1.18-.36.54-.62 1.15-.25.6-.39 1.22-.19.8-.19 1.65 0 .84.19 1.64.14.62.39 1.22.26.61.62 1.15.41.64.96 1.18.54.55 1.18.96.54.36 1.15.62.6.25 1.22.39.8.19 1.65.19.84 0 1.64-.19.62-.14 1.22-.39.61-.26 1.15-.62.64-.41 1.18-.96.55-.54.96-1.18.36-.54.62-1.15.25-.6.39-1.22.03-.11.05-.22"/></g></svg>
